X: 14199
T: Fruity Nutcake, The
R: reel
M: 4/4
K: Amajor
|:c2BA ceea|fedf ecAG|FBBc dcBA|GAFG Eeed|
c2Bc Aeea|bafb afec|dBcd eafd|cABG A4:|
|:B2cd BfdB|bafb afed|A2Bc AecA|dcBd cFGF|
B2cd eBcd|Bcde fefg|agfa gfed|cBBA B2A2:|

